X: 22929
T: Larry O'Gaff's
R: jig
M: 6/8
K: Dmajor
dDD FED|AdB AFD|G3 FAE|DFA B2 c|
dDD FED|AdB AFD|GBG FAF|1 ECA, D2 c:|2 ECA, D2 F||
|:ABc d2 d|dcd ecA|Bcd e2 f|ede f2 e|
dfe dcB|AdB AFD|GBG FAF|1 ECA, DFG:|2 ECA, D3||


